X:786
T:Seamus Cooley's jig
R:Jig
S:tonyji~1.abc
Z:Transcription:???, chords:Mike Long
M:6/8
L:1/8
K:G
"G"BAB G2E|DB,D DEG|GAB AGE|"D"A3 AGA|\
"G"BAB G2E|DB,D DEG|"G"GAB "D"AGE|"G"G3 G2A:|
"G"BAB d2B|BAB d2B|"Am"A3 AGE|"D"ABA AGA|\
"G"BAB d2B|BAB d2B|"C"G2B "D"AGE|"G"G3 G2A||
"G"BAB d2B|BAB d2B|"Am"A3 AGE|"D"ABA AGA|\
"G"BAB G2E|DB,D DEG|"G"GAB "D"AGE|"G"G3 G2A|]
